X:1
T:Geoffrey Shaw
T:Dymchurch
%%score { ( 1 2 ) | ( 3 4 ) }
L:1/8
M:3/4
K:Bb
V:1 treble 
V:2 treble 
V:3 bass 
V:4 bass 
V:1
 F2 G2 F2 | D2 C2 B,2 | B2 c2 B2 | G3 F E2 | D2 E2 F2 | _A2 G2 B2 | A2 d2 c2 | (F4 D2) | G2 F2 E2 | %9
 B2 B2 F2 | G2 F2 E2 | B3 B c2 | e2 d2 B2 | G2 F2 E2 | D2 C2 B,2 | B6- | B6 | B8 B8 |] %18
V:2
 D2 D2 C2 | B,2 A,2 B,2 | G2 G2 F2 | E2 C2 C2 | B,2 B,2 B,2 | E2 E2 E2 | C2 F2 F2 | (F4 D2) | %8
 B,2 B,2 B,2 | F2 E2 D2 | B,2 B,2 B,2 | F2 G2 G2 | F2 F2 F2 | E2 D2 C2 | B,2 A,2 B,2 | %15
 [GB]2 [FA]2 [EG]2 | [DF]6 | E8 D8 |] %18
V:3
 B,2 B,2 C2 | F,2 E,2 F,2 | G,2 A,2 B,2 | C2 C2 A,2 | F,2 F,2 F,2 | B,2 C2 C2 | F,2 G,2 A,2 | %7
 (C2 B,4) | B,2 A,2 G,2 | F,2 F,2 B,2 | B,2 A,2 G,2 | F,2 B,2 E2 | C2 D2 F,2 | G,2 A,2 C2 | %14
 F,2 E,2 F,2 | [E,B,-]6 | B,6 | G,8 F,8 |] %18
V:4
 B,,2 G,,2 A,,2 | B,,2 C,2 D,2 | E,2 E,2 D,2 | C,2 A,,2 F,,2 | B,,2 C,2 D,2 | E,2 E,2 C,2 | %6
 F,2 F,2 E,2 | (D,4 B,,2) | E,2 E,2 E,2 | D,2 C,2 B,,2 | E,2 E,2 E,2 | D,2 E,2 C,2 | %12
 A,,2 B,,2 D,2 | E,2 F,2 A,,2 | B,,2 C,2 D,2 | G,2 A,2 B,2 | [B,,F,]6 | E,8 B,,8 |] %18

